src/apps/scalable/atlauncher.svg

<svg width="64" height="64" version="1.1" xmlns="http://www.w3.org/2000/svg">
 <defs>
  <linearGradient id="linearGradient862-3" x1="7.9373" x2="7.9373" y1="15.081" y2="1.852" gradientTransform="matrix(4.0494 0 0 4.0494 -2.2856 -2.2519)" gradientUnits="userSpaceOnUse">
   <stop stop-color="#f1efeb" offset="0"/>
   <stop stop-color="#fdfcfc" offset="1"/>
  </linearGradient>
  <filter id="filter3932" x="-.08125" y="-.069641" width="1.1625" height="1.1393" color-interpolation-filters="sRGB">
   <feGaussianBlur stdDeviation="1.421875"/>
  </filter>
  <filter id="filter3936" x="-.12185" y="-.13847" width="1.2437" height="1.2769" color-interpolation-filters="sRGB">
   <feGaussianBlur stdDeviation="1.421875"/>
  </filter>
  <filter id="filter964" x="-.027" y="-.027" width="1.054" height="1.054" color-interpolation-filters="sRGB">
   <feGaussianBlur stdDeviation="0.675"/>
  </filter>
 </defs>
 <rect x="2" y="3" width="60" height="60" rx="30" ry="30" fill="#000000" filter="url(#filter964)" opacity=".15"/>
 <rect x="2" y="2" width="60" height="60" rx="30" ry="30" fill="url(#linearGradient862-3)" stroke-width="4.0494"/>
 <path d="m45.986 24.207-13.979 8.0322-14.027-7.9092 0.04102 16.311 3.4521 2.3003v-5.0723l7.041 4.0811v5.0859l3.5 1.8149v-12.397l5.2363-3.0078v12.226l3.5-2.0713v-12.318l5.2363-3.0044zm-24.459 6.3711 6.959 3.9478v3.9341l-6.959-4.0537z" filter="url(#filter3936)" opacity=".2" stroke-width=".875"/>
 <path d="m32 7.9375-21 12.24v24.521l21 12.24 21-12.349v-24.302l-11.806-6.9385-6.9727 4.4229 11.765 6.6821 0.02734 15.846-14.014 8.4116-13.979-8.3159-0.041016-16.064 20.952-12.335z" filter="url(#filter3932)" opacity=".2" stroke-width=".875"/>
 <path d="m32 7.4166-20.691 12.061v24.17l20.691 12.059 20.691-12.166v-23.954l-11.489-6.7542-6.3912 4.0554 11.072 6.5174 0.02895 16.195-13.912 8.2424-13.878-8.1467-0.038604-16.411 20.247-12.159z" fill="#4f4f4f" stroke-width=".875"/>
 <path d="m17.98 23.455 0.04038 16.31 3.4529 2.2992v-5.0718l7.0404 4.082v5.0853l3.5 1.8148v-16.608zm10.507 14.13-6.9596-4.055v-3.8275l6.9596 3.9468z" fill="#7baf31" stroke-width=".875"/>
 <path d="m32 7.0625 6.9327 4.0572-20.953 12.336-6.9798-4.1531zm2.221 9.8343 6.9731-4.4244 11.806 6.9382-7.0134 4.1674z" fill="#4f4f4f" stroke-width=".875"/>
 <path d="m45.987 23.333-13.987 8.0338v4.2197l5.25-3.0143v12.224l3.5-2.0693v-12.321l5.2365-3.0019z" fill="#89c236" stroke-width=".875"/>
 <path d="m11 19.302v24.52l21 12.24v-8.2267l-13.98-8.3156-0.040384-16.065z" fill="#3f3f3f" stroke-width=".875"/>
 <path d="m53 43.714-21 12.348v-8.2267l14.013-8.4109-0.02692-16.092 7.0134-3.9221z" fill="#5b5b5b" stroke-width=".875"/>
</svg>

<svg xmlns="http://www.w3.org/2000/svg" width="64" height="64"><defs><filter id="d" width="1.163" height="1.139" x="-.081" y="-.07" color-interpolation-filters="sRGB"><feGaussianBlur stdDeviation="1.422"/></filter><filter id="c" width="1.244" height="1.277" x="-.122" y="-.138" color-interpolation-filters="sRGB"><feGaussianBlur stdDeviation="1.422"/></filter><filter id="a" width="1.054" height="1.054" x="-.027" y="-.027" color-interpolation-filters="sRGB"><feGaussianBlur stdDeviation=".675"/></filter><linearGradient id="b" x1="7.937" x2="7.937" y1="15.081" y2="1.852" gradientTransform="translate(-2.286 -2.252) scale(4.0494)" gradientUnits="userSpaceOnUse"><stop offset="0" stop-color="#f1efeb"/><stop offset="1" stop-color="#fdfcfc"/></linearGradient></defs><rect width="60" height="60" x="2" y="3" filter="url(#a)" opacity=".15" rx="30" ry="30"/><rect width="60" height="60" x="2" y="2" fill="url(#b)" rx="30" ry="30"/><path d="m45.986 24.207-13.979 8.032L17.98 24.33l.041 16.311 3.452 2.3V37.87l7.041 4.081v5.086l3.5 1.815V36.454l5.236-3.008v12.226l3.5-2.071V31.283l5.237-3.005zm-24.459 6.371 6.959 3.948v3.934l-6.959-4.054z" filter="url(#c)" opacity=".2"/><path d="m32 7.938-21 12.24v24.52l21 12.24L53 44.59V20.287L41.194 13.35l-6.973 4.423 11.765 6.682.028 15.846L32 48.712l-13.98-8.316-.04-16.064 20.952-12.335z" filter="url(#d)" opacity=".2"/><path fill="#4f4f4f" d="m32 7.417-20.691 12.06v24.17L32 55.708 52.691 43.54V19.587l-11.489-6.755-6.391 4.056 11.072 6.517.029 16.195L32 47.843l-13.878-8.147-.039-16.411 20.247-12.16z"/><path fill="#7baf31" d="m17.98 23.455.04 16.31 3.453 2.3v-5.073l7.04 4.082v5.086l3.5 1.815V31.365zm10.507 14.13-6.96-4.055v-3.828l6.96 3.947z"/><path fill="#4f4f4f" d="m32 7.063 6.933 4.057L17.98 23.456 11 19.303zm2.221 9.834 6.973-4.425L53 19.411l-7.013 4.167z"/><path fill="#89c236" d="M45.987 23.333 32 31.367v4.22l5.25-3.015v12.224l3.5-2.07v-12.32l5.237-3.002z"/><path fill="#3f3f3f" d="M11 19.302v24.52l21 12.24v-8.227L18.02 39.52l-.04-16.065z"/><path fill="#5b5b5b" d="M53 43.714 32 56.062v-8.227l14.013-8.41-.027-16.093L53 19.41z"/></svg>
